icon-svg/wiser-thermostat-on.svg

<svg xmlns="http://www.w3.org/2000/svg" fill="#44739e" viewBox="0 0 24 24"><path d="M8.643 19.514v1.3c1.2 1.85 6.142 1.526 6.714-.076v-1.224c-.191.706-3.957 2.353-6.714 0m.016-.166a6.63 6.63 0 0 0 1.531.814 6.433 6.433 0 0 0 3.7.018 4.37 4.37 0 0 0 1.411-.794l-.059-.8c-.949 1.765-5.271 1.585-6.483.028l-.024-.007Zm8.58-11.457c.034.274-.661 1.508-4.867 1.82l.015.745a10.63 10.63 0 0 1-4.57-.706l.276-.663C6.932 8.558 6.8 8.249 6.74 7.94q-.069.235-.14.471v8.448a1.274 1.274 0 0 0 .293.643 3.377 3.377 0 0 0 1.843 1.1v-.021l.022.028c2.434.753 6.458.724 8.374-1.166a.8.8 0 0 0 .223-.571l.045-8.314a2 2 0 0 0-.161-.667m-8.977 3.853a.089.089 0 0 1-.106.014l-.408-.191.009.576c0 .11-.058.166-.133.128a.245.245 0 0 1-.1-.106.38.38 0 0 1-.043-.159l-.016-.57-.376-.176a.326.326 0 0 1-.14-.266.2.2 0 0 1 .03-.13.071.071 0 0 1 .091-.021l.383.169-.018-.623c0-.127.058-.205.139-.173a.224.224 0 0 1 .106.109.41.41 0 0 1 .046.182l.011.631.416.184a.329.329 0 0 1 .151.289.18.18 0 0 1-.042.133m1.725 4.708L9.9 16.4a.26.26 0 0 0 .045-.15.143.143 0 0 0-.1-.154c-.056-.014-.086.013-.117.095-.04.111-.1.152-.18.133a.273.273 0 0 1-.187-.274.3.3 0 0 1 .039-.15l.083.049a.22.22 0 0 0-.035.126.127.127 0 0 0 .087.132c.052.013.076-.021.106-.1.042-.106.1-.151.193-.129a.286.286 0 0 1 .2.3.32.32 0 0 1-.047.174m.037.292-.65-.171v-.121l.649.167zm-.324-.907a.408.408 0 0 1-.341-.379c0-.208.176-.228.291-.205.024 0 .042.012.054.015l.005.457c.158.032.222-.057.22-.177a.47.47 0 0 0-.036-.188h.084a.6.6 0 0 1 .044.227.235.235 0 0 1-.321.25m-.341-1.093.105.019a.15.15 0 0 0 0 .038.2.2 0 0 0 .145.181c.016.005.034.011.053.015l.34.064v.116l-.437-.084a3 3 0 0 0-.193-.032v-.1l.121.018a.237.237 0 0 1-.135-.2.15.15 0 0 1-.003-.035ZM9.2 16.393a.093.093 0 0 1 .069.094.052.052 0 0 1-.069.055.1.1 0 0 1-.07-.094.051.051 0 0 1 .07-.055m-.069 1.358v-.131l.452.026c.114.006.23.016.32.026-.094-.045-.2-.109-.322-.178l-.45-.264v-.13l.449.014c.108 0 .216.009.313.022-.1-.049-.2-.105-.317-.166l-.445-.247V16.6l.9.516v.132l-.479-.016a2.2 2.2 0 0 1-.291-.023c.088.043.175.09.292.161l.485.285v.136zm4.327-5.67a.153.153 0 0 1-.153.153h-1.47a.154.154 0 0 1-.153-.153v-.253a.153.153 0 0 1 .153-.152H13.3a.153.153 0 0 1 .108.045.148.148 0 0 1 .045.107zm-4.023 3.403a.255.255 0 0 0 .187.221v-.344c-.076-.017-.187-.008-.187.123m7.804-7.593a1.5 1.5 0 0 0 .142-.244v-3.9c-.294 1.166-2.516 1.853-5.359 1.813-2.8-.039-4.735-.471-5.4-1.809v3.985c1.169 1.747 4.778 1.749 5.356 1.749.454 0 4.195-.093 5.259-1.592v-.021Zm-.152-4.265a5.065 1.698 0 0 1-5.065 1.698 5.065 1.698 0 0 1-5.065-1.698 5.065 1.698 0 0 1 5.065-1.698 5.065 1.698 0 0 1 5.065 1.698m.954 13.893c1.483-1.168 1.56.008 3.383-1.309-.11-.312-.058-.166-.18-.506-1.858 1.23-2.038.053-3.417 1.213.107.302.088.248.214.602m.121-2.494c1.483-1.167 1.56.009 3.383-1.309-.11-.312-.059-.166-.18-.506-1.858 1.23-2.038.053-3.417 1.213zm0-2.39c1.483-1.167 1.56.009 3.383-1.308-.11-.313-.059-.166-.18-.507-1.858 1.23-2.038.054-3.417 1.213.107.303.088.249.214.602m0-2.257c1.483-1.167 1.56.009 3.383-1.308-.11-.312-.059-.166-.18-.506-1.858 1.23-2.038.053-3.417 1.213.107.302.088.248.214.601m0-2.324c1.483-1.167 1.56.009 3.383-1.308-.11-.313-.059-.166-.18-.507-1.858 1.23-2.038.054-3.417 1.213.107.303.088.248.214.602m0-2.454c1.483-1.167 1.56.009 3.383-1.308-.11-.312-.059-.166-.18-.506-1.858 1.23-2.038.053-3.417 1.213.107.301.088.245.214.601M6.034 17.791c-1.484-1.167-1.56.009-3.383-1.309.11-.312.058-.166.179-.506 1.858 1.23 2.038.053 3.418 1.213-.108.302-.089.248-.214.602M5.913 15.3c-1.484-1.167-1.56.009-3.383-1.309.11-.312.058-.166.179-.506 1.858 1.23 2.038.053 3.418 1.213-.108.302-.089.246-.214.602m0-2.393c-1.484-1.167-1.56.009-3.383-1.308.11-.313.058-.166.179-.506 1.858 1.229 2.038.053 3.418 1.213-.108.302-.089.248-.214.601m0-2.256c-1.484-1.167-1.56.009-3.383-1.309.11-.312.058-.166.179-.506 1.858 1.23 2.038.053 3.418 1.213-.108.302-.089.251-.214.602m0-2.325c-1.484-1.167-1.56.009-3.383-1.308.11-.313.058-.166.179-.506 1.858 1.229 2.038.053 3.418 1.213-.108.302-.089.248-.214.601m0-2.456c-1.484-1.17-1.56.009-3.383-1.309.11-.312.058-.166.18-.506 1.857 1.23 2.037.053 3.417 1.213-.108.302-.089.248-.214.602"/></svg>

<?xml version="1.0" encoding="UTF-8"?>
<svg width="24px" fill="#44739e" height="24px" viewBox="0 0 24 24" version="1.1" xmlns="http://www.w3.org/2000/svg" xmlns:xlink="http://www.w3.org/1999/xlink">
            <path d="m 8.643,19.514 v 1.3 c 1.2,1.85 6.142,1.526 6.714,-0.076 v -1.224 c -0.191,0.706 -3.957,2.353 -6.714,0 z m 0.016,-0.166 a 6.626,6.626 0 0 0 1.531,0.814 6.433,6.433 0 0 0 3.7,0.018 4.374,4.374 0 0 0 1.411,-0.794 c -0.021,-0.284 -0.038,-0.516 -0.059,-0.8 -0.949,1.765 -5.271,1.585 -6.483,0.028 L 8.735,18.607 Z m 8.58,-11.457 v 0 c 0.034,0.274 -0.661,1.508 -4.867,1.82 l 0.015,0.745 A 10.628,10.628 0 0 1 7.817,9.75 L 8.093,9.087 C 6.932,8.558 6.8,8.249 6.74,7.94 Q 6.671,8.175 6.6,8.411 v 8.448 a 1.274,1.274 0 0 0 0.293,0.643 3.377,3.377 0 0 0 1.843,1.1 v -0.021 l 0.022,0.028 c 2.434,0.753 6.458,0.724 8.374,-1.166 a 0.8,0.8 0 0 0 0.223,-0.571 L 17.4,8.558 A 2.006,2.006 0 0 0 17.239,7.891 Z m -8.977,3.853 a 0.089,0.089 0 0 1 -0.106,0.014 l -0.408,-0.191 0.009,0.576 c 0,0.11 -0.058,0.166 -0.133,0.128 A 0.245,0.245 0 0 1 7.524,12.165 0.381,0.381 0 0 1 7.481,12.006 L 7.465,11.436 7.089,11.26 a 0.326,0.326 0 0 1 -0.14,-0.266 0.2,0.2 0 0 1 0.03,-0.13 0.071,0.071 0 0 1 0.091,-0.021 l 0.383,0.169 -0.018,-0.623 c 0,-0.127 0.058,-0.205 0.139,-0.173 a 0.224,0.224 0 0 1 0.106,0.109 0.412,0.412 0 0 1 0.046,0.182 l 0.011,0.631 0.416,0.184 a 0.329,0.329 0 0 1 0.151,0.289 0.18,0.18 0 0 1 -0.042,0.133 z M 9.987,16.452 9.9,16.4 a 0.259,0.259 0 0 0 0.045,-0.15 0.143,0.143 0 0 0 -0.1,-0.154 c -0.056,-0.014 -0.086,0.013 -0.117,0.095 -0.04,0.111 -0.1,0.152 -0.18,0.133 A 0.273,0.273 0 0 1 9.361,16.05 0.3,0.3 0 0 1 9.4,15.9 l 0.083,0.049 a 0.218,0.218 0 0 0 -0.035,0.126 0.127,0.127 0 0 0 0.087,0.132 c 0.052,0.013 0.076,-0.021 0.106,-0.1 0.042,-0.106 0.1,-0.151 0.193,-0.129 a 0.286,0.286 0 0 1 0.2,0.3 0.322,0.322 0 0 1 -0.047,0.174 z m 0.037,0.292 -0.65,-0.171 v -0.121 l 0.649,0.167 z M 9.7,15.837 A 0.408,0.408 0 0 1 9.359,15.458 c 0,-0.208 0.176,-0.228 0.291,-0.205 0.024,0 0.042,0.012 0.054,0.015 l 0.005,0.457 c 0.158,0.032 0.222,-0.057 0.22,-0.177 A 0.474,0.474 0 0 0 9.893,15.36 h 0.084 a 0.6,0.6 0 0 1 0.044,0.227 0.235,0.235 0 0 1 -0.321,0.25 z m -0.341,-1.093 0.105,0.019 a 0.146,0.146 0 0 0 0,0.038 0.2,0.2 0 0 0 0.145,0.181 c 0.016,0.005 0.034,0.011 0.053,0.015 l 0.34,0.064 v 0.116 L 9.565,15.093 C 9.491,15.079 9.429,15.068 9.372,15.061 v -0.1 l 0.121,0.018 v 0 A 0.237,0.237 0 0 1 9.358,14.779 0.151,0.151 0 0 1 9.355,14.744 Z M 9.2,16.393 A 0.093,0.093 0 0 1 9.269,16.487 0.052,0.052 0 0 1 9.2,16.542 0.1,0.1 0 0 1 9.13,16.448 0.051,0.051 0 0 1 9.2,16.393 Z M 9.131,17.751 V 17.62 l 0.452,0.026 c 0.114,0.006 0.23,0.016 0.32,0.026 v 0 C 9.809,17.627 9.703,17.563 9.581,17.494 L 9.131,17.23 V 17.1 l 0.449,0.014 c 0.108,0 0.216,0.009 0.313,0.022 v 0 C 9.793,17.087 9.693,17.031 9.576,16.97 L 9.131,16.723 V 16.6 l 0.9,0.516 v 0.132 L 9.552,17.232 A 2.176,2.176 0 0 1 9.261,17.209 v 0 c 0.088,0.043 0.175,0.09 0.292,0.161 l 0.485,0.285 v 0.136 z m 4.327,-5.67 a 0.153,0.153 0 0 1 -0.153,0.153 h -1.47 a 0.154,0.154 0 0 1 -0.153,-0.153 v -0.253 a 0.153,0.153 0 0 1 0.153,-0.152 H 13.3 a 0.153,0.153 0 0 1 0.108,0.045 0.148,0.148 0 0 1 0.045,0.107 z m -4.023,3.403 a 0.255,0.255 0 0 0 0.187,0.221 V 15.361 C 9.546,15.344 9.435,15.353 9.435,15.484 Z m 7.804,-7.593 a 1.491,1.491 0 0 0 0.142,-0.244 v -3.9 C 17.087,4.913 14.865,5.6 12.022,5.56 9.222,5.521 7.287,5.089 6.622,3.751 v 3.985 c 1.169,1.747 4.778,1.749 5.356,1.749 0.454,0 4.195,-0.093 5.259,-1.592 V 7.872 Z M 17.087,3.6259999 a 5.0650001,1.698 0 0 1 -5.065,1.698 5.0650001,1.698 0 0 1 -5.0649997,-1.698 A 5.0650001,1.698 0 0 1 12.022,1.928 5.0650001,1.698 0 0 1 17.087,3.6259999 Z M 18.041,17.519 c 1.483,-1.168 1.56,0.008 3.383,-1.309 -0.11,-0.312 -0.058,-0.166 -0.18,-0.506 -1.858,1.23 -2.038,0.053 -3.417,1.213 0.107,0.302 0.088,0.248 0.214,0.602 z m 0.121,-2.494 c 1.483,-1.167 1.56,0.009 3.383,-1.309 -0.11,-0.312 -0.059,-0.166 -0.18,-0.506 -1.858,1.23 -2.038,0.053 -3.417,1.213 z m 0,-2.39 c 1.483,-1.167 1.56,0.009 3.383,-1.308 -0.11,-0.313 -0.059,-0.166 -0.18,-0.507 -1.858,1.23 -2.038,0.054 -3.417,1.213 0.107,0.303 0.088,0.249 0.214,0.602 z m 0,-2.257 c 1.483,-1.167 1.56,0.009 3.383,-1.308 -0.11,-0.312 -0.059,-0.166 -0.18,-0.506 -1.858,1.23 -2.038,0.053 -3.417,1.213 0.107,0.302 0.088,0.248 0.214,0.601 z m 0,-2.324 c 1.483,-1.167 1.56,0.009 3.383,-1.308 -0.11,-0.313 -0.059,-0.166 -0.18,-0.507 -1.858,1.23 -2.038,0.054 -3.417,1.213 0.107,0.303 0.088,0.248 0.214,0.602 z m 0,-2.454 C 19.645,4.433 19.722,5.609 21.545,4.292 21.435,3.98 21.486,4.126 21.365,3.786 19.507,5.016 19.327,3.839 17.948,4.999 18.055,5.3 18.036,5.244 18.162,5.6 Z M 6.034,17.791 C 4.55,16.624 4.474,17.8 2.651,16.482 2.761,16.17 2.709,16.316 2.83,15.976 c 1.858,1.23 2.038,0.053 3.418,1.213 -0.108,0.302 -0.089,0.248 -0.214,0.602 z M 5.913,15.3 C 4.429,14.133 4.353,15.309 2.53,13.991 2.64,13.679 2.588,13.825 2.709,13.485 4.567,14.715 4.747,13.538 6.127,14.698 6.019,15 6.038,14.944 5.913,15.3 Z m 0,-2.393 C 4.429,11.74 4.353,12.916 2.53,11.599 c 0.11,-0.313 0.058,-0.166 0.179,-0.506 1.858,1.229 2.038,0.053 3.418,1.213 -0.108,0.302 -0.089,0.248 -0.214,0.601 z m 0,-2.256 C 4.429,9.484 4.353,10.66 2.53,9.342 2.64,9.03 2.588,9.176 2.709,8.836 4.567,10.066 4.747,8.889 6.127,10.049 6.019,10.351 6.038,10.3 5.913,10.651 Z m 0,-2.325 C 4.429,7.159 4.353,8.335 2.53,7.018 2.64,6.705 2.588,6.852 2.709,6.512 4.567,7.741 4.747,6.565 6.127,7.725 6.019,8.027 6.038,7.973 5.913,8.326 Z m 0,-2.456 C 4.429,4.7 4.353,5.879 2.53,4.561 2.64,4.249 2.588,4.395 2.71,4.055 4.567,5.285 4.747,4.108 6.127,5.268 6.019,5.57 6.038,5.516 5.913,5.87 Z"></path>

</svg>
